X: 57
T: A Bear Said This
C: Teton Sioux band 1911-1914
N: Derived from sioux057.krn
O: South Dakota, U.S.A.
N: Teton Sioux Music by Frances Densmore, 1918
Z: transcribed to **kern format by Craig Sapp
L: 1/8
M: 3/4
Q: 1/4=58
K: F clef=bass
%%linebreak <none>
G2G2G3/ F/ [I:setbarnb 2]| 
F6 | 
F2F2F3/ D/ | 
D6 ||  
[M:2/4]F2F2 | 
(3G F D D/ C/ G,/ G,/ | 
D> DC2 | 
(3D C G, A,/ G,/ F,/ F,/ ||  
[M:3/4]G,> G,G,2(3A, G, F, | 
F,6 | 
F,2F,2F,3/ D,/ | 
D,6 | 
G,> G,G,2(3A, G, F, | 
F,6 | 
F,2F,2G,3/ F,/ | 
F,6 ||  
[M:2/4]F,7/G/ | 
F> FF2 ||  
[M:3/4](3G F D (D C A,3/) D/ ||  
[M:2/4]D> DC2 ||  
[M:3/4](3(D C) A, (A, G, F,3/) G,/ | 
G,> G,G,2(A, G,) | 
F,< F, F,< F,F,2 | 
F,< F,F,2F,2 | 
D,< D,-D,4 | 
G,> G,G,2A, G, | 
F,< F,F,4- | 
F,> F,F,2G, F, | 
F,6 | 
F,2z4 |]  



